X:1
T:Title
%%score { 1 | 2 }
L:1/8
Q:1/4=92
M:4/4
K:Ab
V:1 treble nm="Grand Piano"
V:2 treble 
V:1
 A2 G>B A2 E>E | c2 B>d c2 A2 | [ce]2 [Bd]>[df] [ce]2 c>A | d2 c>c B4 | B2 G>A B2 B>B | %5
w: Chas.~H.~Gabriel * * * * *|||||
 d2 B>c d2 d2 | c2 A>B c2 c2 | =d2 c>d e4 | e2 c>d e2 c>d | e2 c>d e2 A2 | f2 d>e f2 f>f | %11
w: ||||||
 e2 d>c B4 | c2 c>c d2 B>B |[M:5/4] e2 e>e f3 B3 |[M:4/4] c2 B>B e2 e>d | c2 B>B A4 |] %16
w: |||||
V:2
 [A,CE]2 [A,B,E]>[A,E] [A,CE]2 [A,C]>[A,C] | [A,EA]2 [A,DA]>[A,FA] [A,EA]2 [A,CE]2 | %2
 [A,A]2 [A,A]>[A,A] [A,A]2 [A,EA]>[A,C] | [B,EG]2 [A,EA]>[CEA] [EG]4 | %4
 [EG]2 E>[EF] [EG]2 [EG]>[EG] | [EGB]2 [EG]>[EA] [EGB]2 [EGB]2 | %6
 [A,EA]2 [CE]>[B,EG] [A,EA]2 [A,EA]2 | [B,FA]2 [B,AB]>[B,AB] [EGB]4 | %8
 [Ac]2 [A,EA]>[A,EB] [Ac]2 [A,EA]>[A,EB] | [Ac]2 [A,EA]>[A,EB] [Ac]2 [CE]2 | %10
 [DAd]2 [FA]>[EA] [DAd]2 [DAd]>[DAd] | [CA]2 [B,EG]>[A,EA] [EG]4 | %12
 [A,EA]2 [=A,E_G]>[A,EG] [B,E=G]2 [DEG]>[DEG] |[M:5/4] [CA]2 [CA]>[CA] [DAd]3 [=DFA]3 | %14
[M:4/4] [EA]2 [DEG]>[DEG] [CEA]2 [DFA]>[DFA] | [EA]2 [DEG]>[DE] [A,CE]4 |] %16

